!!!COM: Hugo Wolf
!!!CNT: Deutscher
!!!TXO: Deutsche 
!!!OTL: Agnes
!!!ONM: No. 14
!!!ODT: 1888/
!!!LYR: Moericke
!!!ENC: Brian Bice
!!!YOR: 65 Songs for voice and piano, International Music Compoany, 1960
!!NB: Vocal melody and text only encoded.
**kern	**silbe
*clefG2	*
*k[b-e-a-d-]	*
*M4/4	*
=6	=6
{4dd-	{Ro-
4dd-	-sen-
4b-	-zelt!
4a-	wie
=7	=7
4g	schnell
4a-	vor-
2b-	-bei
=8	=8
4f	schnell
4g	vor-
2a-}	-bei}
=9	=9
{4g-	{bist
4a-	du
([4b-	doch
12b-]	|
12a-)	|
12g-	ge-
=10	=10
8f	-gan-
8a-	|
4gn}	-gen!}
2r	.
=11	=11
{4cc	{Wa2r'
4cc	mein
4cc	Lieb'
4ee-	nur
=12	=12
(8ee-	blie-
8ff)	|
4gg-	-ben
2gg-	treu,
=13	=13
4b-	blie-
(8cc	-ben
8dd-)	|
2dd-}	treu,}
=14	=14
{4g-	{soll-
4a-	-te
(6b-	mir
6cc-)	|
6dd-	nicht
=15	=15
(2f	ban-
4a-)	|
4gn}	-gen.}
=18	=18
{4g	{Um
4g	die
4g	Ern-
4g	-te
=19	=19
4.g	wohl-
8a-	-ge-
[4b-	-mut,
8b-]	|
8r	.
=20	=20
4.b-	wohl-
8cc	-ge-
2dd}	-mut}
=21	=21
{4cc	{Schnit-
4cc	-te-
(8cc	-rin-
8dd)	|
4ee-	-nen
=22	=22
2cc	sin-
4b-}	-gen.}
4r	.
=23	=23
{4f	{A-
8f	-ber,
8r	.
8f	ach!
8r	.
8r	.
8f	mir
=24	=24
4f	kran-
4g	-kem
4a-	Blut,
8r	.
8a-	mir
=25	=25
4a-	kran-
4b-	-kem
2bn}	Blut,}
=26	=26
{4dd-	{will
4cc	nichts
4cc-	mehr
(8b-	ge-
8a-)	|
=27	=27
4a-	-lin-
4f-}	-gen.}
2r	.
=30	=30
{4.dd-	{Schlei-
8dd-	-che
4b-	so
4a-	durchs
=31	=31
4g	Wie-
4a-	-sen-
2b-	-tal,
=32	=32
4f	so
4g	durchs
2a-}	Tal,}
=33	=33
{4g-	{als
4a-	im
(4b-	Traum
8a-)	|
8g-	ver-
=34	=34
(8f	-lo-
8a-)	|
4gn}	-ren,}
2r	.
=35	=35
{4cc	{nach
4cc	dem
4cc	Berg,
4ee-	da
=36	=36
(8ee-	tau-
8ff)	|
4gg-	-send-
2gg-	-mal,
=37	=37
4b-	tau-
(8cc	-send-
8dd-)	|
2dd-}	-mal}
=38	=38
{4g-	{er
4a-	mir
(6b-	Treu
6cc-)	|
6dd-	ge-
=39	=39
(2f	-schwo-
4a-)	|
4gn}	-ren.}
=42	=42
{4g	{O-
4g	-ben
4g	auf
4g	des
=43	=43
4.g	Hu2-
8a-	-gels
2b-	Rand,
=44	=44
4.b-	ab-
8cc	-ge-
[4dd-	-wandt,
8dd-]}	|}
8r	.
=45	=45
{4cc	{wein'
4cc	ich
(6cc	bei
6dd-)	|
6ee-	der
=46	=46
2cc	Lin-
4b-}	-de;}
4r	.
=47	=47
{4f	{an
4f	dem
4f	Hut
4f	mein
=48	=48
4.f	Ro-
8g	-sen-
4a-	-band,
8r	.
8a-	von
=49	=49
4.a-	sei-
8b-	-ner
2bn}	Hand,}
=50	=50
{4cc	{spie-
(8b-	-let
8a-)	|
4g-	in
4dd-	dem
=51	=51
1cc	Win-
=52	=52
2cc}	-de.}
2r	.
*-	*-
